assets/icon-home.svg

<svg fill="none" height="16" viewBox="0 0 16 16" width="16" xmlns="http://www.w3.org/2000/svg" xmlns:xlink="http://www.w3.org/1999/xlink"><clipPath id="a"><path d="m0 0h16v16h-16z"/></clipPath><g clip-path="url(#a)"><path d="m11 16h2c.6 0 1-.4 1-1v-6.99999h1c.3 0 .6-.1.8-.3.4-.4.3-1-.1-1.4l-7.00001-5.999998c-.4-.2999998-.9-.2999998-1.3 0l-7.000001 5.999998c-.40000012.4-.5 1-.1 1.4.1.2.4.3.7.3h1.000001v6.99999c0 .6.4 1 1 1h2c.6 0 1-.4 1-1v-3h4v3c0 .6.40001 1 1.00001 1z" fill="#546bfb"/></g></svg>

<svg width="16" height="16" viewBox="0 0 16 16" fill="none" xmlns="http://www.w3.org/2000/svg">
<g clip-path="url(#clip0)">
<path d="M11 16H13C13.6 16 14 15.6 14 15V8.00001H15C15.3 8.00001 15.6 7.90001 15.8 7.70001C16.2 7.30001 16.1 6.70001 15.7 6.30001L8.69999 0.300012C8.29999 1.22041e-05 7.79999 1.22041e-05 7.39999 0.300012L0.399989 6.30001C-1.11163e-05 6.70001 -0.100011 7.30001 0.299989 7.70001C0.399989 7.90001 0.699989 8.00001 0.999989 8.00001C1.19999 8.00001 1.99999 8.00001 1.99999 8.00001V15C1.99999 15.6 2.39999 16 2.99999 16H4.99999C5.59999 16 5.99999 15.6 5.99999 15V12H9.99999V15C9.99999 15.6 10.4 16 11 16Z" fill="#546BFB"/>
</g>
<defs>
<clipPath id="clip0">
<rect width="16" height="16" fill="white"/>
</clipPath>
</defs>
</svg>
